third_party/noto/noto_2/emoji_u1f6bf.svg

<svg enable-background="new 0 0 128 128" version="1.1" viewBox="0 0 128 128" xmlns="http://www.w3.org/2000/svg"><path d="m100.87 15.07-12.93 12.88 10.11 10.11 13.03-13.04c3.64-3.64 7.98-6.12 12.92-7.22v-13.13c-8.78 0.47-16.88 4.16-23.13 10.4z" fill="#BDBDBD"/><path d="m96.59 30.45c-14.37-14.37-37.92-14.13-52.07-0.18l52.25 52.25c13.95-14.15 14.19-37.7-0.18-52.07z" fill="#BDBDBD"/><path d="m107.74 28.62c-0.21-0.79-1.84-3.67-4.07-5.83s-4.75-3.72-6.94-4.17c-4.35-0.9-6.82 2.28-9.57 5.03 3.41 1.7 6.6 3.96 9.43 6.8 2.45 2.45 4.47 5.18 6.08 8.08-0.13-0.23 4.03-4.03 4.03-4.03 1.48-1.5 1.6-3.8 1.04-5.88z" fill="#78909C"/><path d="m96.59 30.45c-14.37-14.37-37.92-14.13-52.07-0.18l52.25 52.25c13.95-14.15 14.19-37.7-0.18-52.07z" fill="#BDBDBD"/><path d="m83.74 41.83c-15.99-14.44-29.84-18.22-29.84-18.22-1.07 0.44-1.97 0.86-2.78 1.31 0 0 11.13 4.66 28.22 20.36s24 28.51 24 28.51c0.53-1.08 0.99-2.28 1.45-3.7-0.01 0-2.1-11.14-21.05-28.26z" fill="#9E9E9E"/><path d="m81.17 44.73c17.59 16.13 28.11 32.83 24.01 37.75-2.9 3.48-6.52 3.2-6.52 3.2-7.77-1.84-20.51-12.25-33.16-23.85-12.87-11.8-26.09-27.08-26.71-29.7 0 0-0.79-2.69-0.09-4.63 0.88-2.43 2.79-3.42 2.79-3.42 6.74-3.68 22.09 4.52 39.68 20.65z" fill="#BDBDBD"/><ellipse transform="matrix(.6758 -.737 .737 .6758 -19.805 69.642)" cx="69.27" cy="57.34" rx="7.05" ry="41.25" fill="#757575"/><path d="m68.13 22.25c-0.97 0.39-1.85 1.25-1.9 2.29-0.06 1.29 1.98 2.63 4.39 2.21 3.91-0.69 7.16-0.55 8.21-0.37 0.56 0.1 2.62 0.1 2.62-1.19 0-1.32-2.05-2.19-2.58-2.4-3-1.19-7.52-1.82-10.74-0.54z" fill="#DFECF5"/><path d="m48.94 26.56c-0.34 1.54 2.71 2.53 3.39 2.73 1.41 0.43 5.26 1.84 5.9 1.32 0.45-0.37 0.53-1.44-3.52-3.7-3.21-1.8-5.44-1.81-5.77-0.35z" fill="#DFECF5"/><radialGradient id="i" cx="79.276" cy="48.098" r="123.23" gradientTransform="matrix(-.7157 .6984 -.1115 -.1142 141.37 -1.7761)" gradientUnits="userSpaceOnUse"><stop stop-color="#4FC3F7" offset="0"/><stop stop-color="#4FC3F7" stop-opacity="0" offset=".8296"/></radialGradient><path d="m6.71 120.14c-2.09-2.09-1.68-7.4 0.66-9.49l58.66-52.79c1.05-1.03 2.73-1.03 3.79 0 1.07 1.04 1.08 2.76 0.04 3.82l-54.26 57.4c-2.47 2.6-6.8 3.16-8.89 1.06z" fill="url(#i)"/><linearGradient id="h" x1="69.927" x2="22.517" y1="58.047" y2="111.45" gradientUnits="userSpaceOnUse"><stop stop-color="#4FC3F7" offset="0"/><stop stop-color="#4FC3F7" stop-opacity="0" offset=".8296"/></linearGradient><path d="m70.27 58.5c-31.63 27.37-54.62 58.91-55.28 61.14 0 0 0.56-0.52 0.59-0.56l54.26-57.4c0.86-0.87 0.99-2.16 0.43-3.18z" fill="url(#h)"/><radialGradient id="g" cx="61.263" cy="35.447" r="94.412" gradientTransform="matrix(-.7902 .6129 -.0978 -.1261 118.09 7.1664)" gradientUnits="userSpaceOnUse"><stop stop-color="#4FC3F7" offset="0"/><stop stop-color="#4FC3F7" stop-opacity="0" offset=".8296"/></radialGradient><path d="m9.41 77.98 44.76-31.47c1.17-0.9 2.84-0.7 3.76 0.45 0.93 1.16 0.74 2.86-0.42 3.8l-44.51 37c-2.9 2.41-6.26 3.28-8.4-0.51-2.19-3.85 2.21-7.44 4.81-9.27z" fill="url(#g)"/><linearGradient id="f" x1="53.324" x2="14.231" y1="44.822" y2="87.377" gradientTransform="matrix(.9928 .1197 -.1197 .9928 9.629 -2.283)" gradientUnits="userSpaceOnUse"><stop stop-color="#4FC3F7" offset="0"/><stop stop-color="#4FC3F7" stop-opacity="0" offset=".8296"/></linearGradient><path d="m58.31 47.65c-0.19-0.04-34.81 23.68-46.16 40.8l45.35-37.69c0.96-0.76 1.24-2.03 0.81-3.11z" fill="url(#f)"/><radialGradient id="e" cx="43.953" cy="24.996" r="70.072" gradientTransform="matrix(-.8551 .5185 -.0827 -.1365 93.478 13.157)" gradientUnits="userSpaceOnUse"><stop stop-color="#4FC3F7" offset="0"/><stop stop-color="#4FC3F7" stop-opacity="0" offset=".8296"/></radialGradient><path d="m5.09 62.38c-2-4.38 2.61-6.48 2.61-6.48l35.55-19.75c1.25-0.77 2.9-0.4 3.69 0.85 0.8 1.26 0.44 2.93-0.82 3.73l-34.02 22.66s-4.84 3.75-7.01-1.01z" fill="url(#e)"/><linearGradient id="d" x1="38.337" x2="9.8219" y1="32.629" y2="63.669" gradientTransform="matrix(.9746 .2238 -.2238 .9746 16.58 -1.6624)" gradientUnits="userSpaceOnUse"><stop stop-color="#4FC3F7" offset="0"/><stop stop-color="#4FC3F7" stop-opacity="0" offset=".8296"/></linearGradient><path d="m47.25 37.72c-0.19-0.06-18.51 9.7-36.37 26.41l35.23-23.4c1.03-0.66 1.45-1.9 1.14-3.01z" fill="url(#d)"/><radialGradient id="c" cx="100.71" cy="64.392" r="97.119" gradientTransform="matrix(-.6174 .7867 .1255 .0985 141.61 -26.248)" gradientUnits="userSpaceOnUse"><stop stop-color="#4FC3F7" offset="0"/><stop stop-color="#4FC3F7" stop-opacity="0" offset=".8296"/></radialGradient><path d="m48.38 117.92 32.7-46.36c0.9-1.17 0.69-2.9-0.45-3.76-1.19-0.9-2.86-0.74-3.8 0.42l-38.23 46.12c-2.41 2.9-3.28 6.26 0.51 8.4 3.85 2.18 7.44-2.22 9.27-4.82z" fill="url(#c)"/><linearGradient id="b" x1="95.906" x2="56.6" y1="76.972" y2="119.76" gradientTransform="matrix(.9986 -.0537 .0537 .9986 -17.267 -.2494)" gradientUnits="userSpaceOnUse"><stop stop-color="#4FC3F7" offset="0"/><stop stop-color="#4FC3F7" stop-opacity="0" offset=".8296"/></linearGradient><path d="m81.11 68.3c-0.5 0.51-26.25 33.02-34.47 51.84l34.38-48.5c0.8-0.98 0.84-2.51 0.09-3.34z" fill="url(#b)"/><radialGradient id="a" cx="87.278" cy="48.666" r="73.408" gradientTransform="matrix(-.5065 .8622 .1376 .0808 133.43 -8.7226)" gradientUnits="userSpaceOnUse"><stop stop-color="#4FC3F7" offset="0"/><stop stop-color="#4FC3F7" stop-opacity="0" offset=".8296"/></radialGradient><path d="m64.89 122.83c4.37 2 6.48-2.61 6.48-2.61l20.93-38.84c0.77-1.25-0.09-3-0.85-3.69-0.82-0.75-2.93-0.44-3.73 0.82l-23.85 37.31c0.01 0-3.74 4.84 1.02 7.01z" fill="url(#a)"/><linearGradient id="j" x1="84.048" x2="53.924" y1="59.372" y2="92.163" gradientTransform="matrix(.96 -.2801 .2801 .96 -5.7529 45.651)" gradientUnits="userSpaceOnUse"><stop stop-color="#4FC3F7" offset="0"/><stop stop-color="#4FC3F7" stop-opacity="0" offset=".8296"/></linearGradient><path d="m91.71 77.92c-0.19 0.04-13.16 19.47-20.59 42.77l20.83-38.64c1.13-1.51 0.57-3.31-0.24-4.13z" fill="url(#j)"/></svg>

<?xml version="1.0" encoding="utf-8"?>
<!-- Generator: Adobe Illustrator 25.2.3, SVG Export Plug-In . SVG Version: 6.00 Build 0)  -->
<svg version="1.1" id="Layer_4" xmlns="http://www.w3.org/2000/svg" xmlns:xlink="http://www.w3.org/1999/xlink" x="0px" y="0px"
	 viewBox="0 0 128 128" style="enable-background:new 0 0 128 128;" xml:space="preserve">
<g>
	<path style="fill:#BDBDBD;" d="M100.87,15.07L87.94,27.95l10.11,10.11l13.03-13.04c3.64-3.64,7.98-6.12,12.92-7.22V4.67
		C115.22,5.14,107.12,8.83,100.87,15.07z"/>
	<path style="fill:#BDBDBD;" d="M96.59,30.45c-14.37-14.37-37.92-14.13-52.07-0.18l52.25,52.25
		C110.72,68.37,110.96,44.82,96.59,30.45z"/>
	<g>
		<path style="fill:#78909C;" d="M107.74,28.62c-0.21-0.79-1.84-3.67-4.07-5.83s-4.75-3.72-6.94-4.17c-4.35-0.9-6.82,2.28-9.57,5.03
			c3.41,1.7,6.6,3.96,9.43,6.8c2.45,2.45,4.47,5.18,6.08,8.08c-0.13-0.23,4.03-4.03,4.03-4.03C108.18,33,108.3,30.7,107.74,28.62z"
			/>
	</g>
	<path style="fill:#BDBDBD;" d="M96.59,30.45c-14.37-14.37-37.92-14.13-52.07-0.18l52.25,52.25
		C110.72,68.37,110.96,44.82,96.59,30.45z"/>
	<path style="fill:#9E9E9E;" d="M83.74,41.83C67.75,27.39,53.9,23.61,53.9,23.61c-1.07,0.44-1.97,0.86-2.78,1.31
		c0,0,11.13,4.66,28.22,20.36s24,28.51,24,28.51c0.53-1.08,0.99-2.28,1.45-3.7C104.78,70.09,102.69,58.95,83.74,41.83z"/>
	<path style="fill:#BDBDBD;" d="M81.17,44.73c17.59,16.13,28.11,32.83,24.01,37.75c-2.9,3.48-6.52,3.2-6.52,3.2
		c-7.77-1.84-20.51-12.25-33.16-23.85c-12.87-11.8-26.09-27.08-26.71-29.7c0,0-0.79-2.69-0.09-4.63c0.88-2.43,2.79-3.42,2.79-3.42
		C48.23,20.4,63.58,28.6,81.17,44.73z"/>
	<g>
		
			<ellipse transform="matrix(0.6758 -0.737 0.737 0.6758 -19.8051 69.6417)" style="fill:#757575;" cx="69.27" cy="57.34" rx="7.05" ry="41.25"/>
	</g>
	<path style="fill:#DFECF5;" d="M68.13,22.25c-0.97,0.39-1.85,1.25-1.9,2.29c-0.06,1.29,1.98,2.63,4.39,2.21
		c3.91-0.69,7.16-0.55,8.21-0.37c0.56,0.1,2.62,0.1,2.62-1.19c0-1.32-2.05-2.19-2.58-2.4C75.87,21.6,71.35,20.97,68.13,22.25z"/>
	<path style="fill:#DFECF5;" d="M48.94,26.56c-0.34,1.54,2.71,2.53,3.39,2.73c1.41,0.43,5.26,1.84,5.9,1.32
		c0.45-0.37,0.53-1.44-3.52-3.7C51.5,25.11,49.27,25.1,48.94,26.56z"/>
	
		<radialGradient id="SVGID_1_" cx="79.2756" cy="48.0978" r="123.2251" gradientTransform="matrix(-0.7157 0.6984 -0.1115 -0.1142 141.3735 -1.7761)" gradientUnits="userSpaceOnUse">
		<stop  offset="0" style="stop-color:#4FC3F7"/>
		<stop  offset="0.8296" style="stop-color:#4FC3F7;stop-opacity:0"/>
	</radialGradient>
	<path style="fill:url(#SVGID_1_);" d="M6.71,120.14c-2.09-2.09-1.68-7.4,0.66-9.49l58.66-52.79c1.05-1.03,2.73-1.03,3.79,0v0
		c1.07,1.04,1.08,2.76,0.04,3.82l-54.26,57.4C13.13,121.68,8.8,122.24,6.71,120.14z"/>
	<linearGradient id="SVGID_2_" gradientUnits="userSpaceOnUse" x1="69.9271" y1="58.0468" x2="22.5172" y2="111.4511">
		<stop  offset="0" style="stop-color:#4FC3F7"/>
		<stop  offset="0.8296" style="stop-color:#4FC3F7;stop-opacity:0"/>
	</linearGradient>
	<path style="fill:url(#SVGID_2_);" d="M70.27,58.5c-31.63,27.37-54.62,58.91-55.28,61.14c0,0,0.56-0.52,0.59-0.56l54.26-57.4
		C70.7,60.81,70.83,59.52,70.27,58.5z"/>
	
		<radialGradient id="SVGID_3_" cx="61.2629" cy="35.4468" r="94.4117" gradientTransform="matrix(-0.7902 0.6129 -0.0978 -0.1261 118.0854 7.1664)" gradientUnits="userSpaceOnUse">
		<stop  offset="0" style="stop-color:#4FC3F7"/>
		<stop  offset="0.8296" style="stop-color:#4FC3F7;stop-opacity:0"/>
	</radialGradient>
	<path style="fill:url(#SVGID_3_);" d="M9.41,77.98l44.76-31.47c1.17-0.9,2.84-0.7,3.76,0.45l0,0c0.93,1.16,0.74,2.86-0.42,3.8
		l-44.51,37c-2.9,2.41-6.26,3.28-8.4-0.51C2.41,83.4,6.81,79.81,9.41,77.98z"/>
	
		<linearGradient id="SVGID_4_" gradientUnits="userSpaceOnUse" x1="53.3242" y1="44.8222" x2="14.231" y2="87.3768" gradientTransform="matrix(0.9928 0.1197 -0.1197 0.9928 9.629 -2.283)">
		<stop  offset="0" style="stop-color:#4FC3F7"/>
		<stop  offset="0.8296" style="stop-color:#4FC3F7;stop-opacity:0"/>
	</linearGradient>
	<path style="fill:url(#SVGID_4_);" d="M58.31,47.65c-0.19-0.04-34.81,23.68-46.16,40.8l45.35-37.69
		C58.46,50,58.74,48.73,58.31,47.65z"/>
	
		<radialGradient id="SVGID_5_" cx="43.9531" cy="24.9959" r="70.0725" gradientTransform="matrix(-0.8551 0.5185 -0.0827 -0.1365 93.4784 13.1568)" gradientUnits="userSpaceOnUse">
		<stop  offset="0" style="stop-color:#4FC3F7"/>
		<stop  offset="0.8296" style="stop-color:#4FC3F7;stop-opacity:0"/>
	</radialGradient>
	<path style="fill:url(#SVGID_5_);" d="M5.09,62.38C3.09,58,7.7,55.9,7.7,55.9l35.55-19.75c1.25-0.77,2.9-0.4,3.69,0.85l0,0
		c0.8,1.26,0.44,2.93-0.82,3.73L12.1,63.39C12.1,63.39,7.26,67.14,5.09,62.38z"/>
	
		<linearGradient id="SVGID_6_" gradientUnits="userSpaceOnUse" x1="38.337" y1="32.6289" x2="9.8219" y2="63.6688" gradientTransform="matrix(0.9746 0.2238 -0.2238 0.9746 16.5805 -1.6624)">
		<stop  offset="0" style="stop-color:#4FC3F7"/>
		<stop  offset="0.8296" style="stop-color:#4FC3F7;stop-opacity:0"/>
	</linearGradient>
	<path style="fill:url(#SVGID_6_);" d="M47.25,37.72c-0.19-0.06-18.51,9.7-36.37,26.41l35.23-23.4
		C47.14,40.07,47.56,38.83,47.25,37.72z"/>
	
		<radialGradient id="SVGID_7_" cx="100.7062" cy="64.3922" r="97.1189" gradientTransform="matrix(-0.6174 0.7867 0.1255 0.0985 141.6124 -26.248)" gradientUnits="userSpaceOnUse">
		<stop  offset="0" style="stop-color:#4FC3F7"/>
		<stop  offset="0.8296" style="stop-color:#4FC3F7;stop-opacity:0"/>
	</radialGradient>
	<path style="fill:url(#SVGID_7_);" d="M48.38,117.92l32.7-46.36c0.9-1.17,0.69-2.9-0.45-3.76c-1.19-0.9-2.86-0.74-3.8,0.42
		L38.6,114.34c-2.41,2.9-3.28,6.26,0.51,8.4C42.96,124.92,46.55,120.52,48.38,117.92z"/>
	
		<linearGradient id="SVGID_8_" gradientUnits="userSpaceOnUse" x1="95.9055" y1="76.972" x2="56.5996" y2="119.758" gradientTransform="matrix(0.9986 -0.0537 0.0537 0.9986 -17.2672 -0.2494)">
		<stop  offset="0" style="stop-color:#4FC3F7"/>
		<stop  offset="0.8296" style="stop-color:#4FC3F7;stop-opacity:0"/>
	</linearGradient>
	<path style="fill:url(#SVGID_8_);" d="M81.11,68.3c-0.5,0.51-26.25,33.02-34.47,51.84l34.38-48.5
		C81.82,70.66,81.86,69.13,81.11,68.3z"/>
	
		<radialGradient id="SVGID_9_" cx="87.278" cy="48.6661" r="73.408" gradientTransform="matrix(-0.5065 0.8622 0.1376 0.0808 133.433 -8.7226)" gradientUnits="userSpaceOnUse">
		<stop  offset="0" style="stop-color:#4FC3F7"/>
		<stop  offset="0.8296" style="stop-color:#4FC3F7;stop-opacity:0"/>
	</radialGradient>
	<path style="fill:url(#SVGID_9_);" d="M64.89,122.83c4.37,2,6.48-2.61,6.48-2.61L92.3,81.38c0.77-1.25-0.09-3-0.85-3.69
		c-0.82-0.75-2.93-0.44-3.73,0.82l-23.85,37.31C63.88,115.82,60.13,120.66,64.89,122.83z"/>
	
		<linearGradient id="SVGID_10_" gradientUnits="userSpaceOnUse" x1="84.0476" y1="59.372" x2="53.9237" y2="92.1631" gradientTransform="matrix(0.96 -0.2801 0.2801 0.96 -5.7529 45.6511)">
		<stop  offset="0" style="stop-color:#4FC3F7"/>
		<stop  offset="0.8296" style="stop-color:#4FC3F7;stop-opacity:0"/>
	</linearGradient>
	<path style="fill:url(#SVGID_10_);" d="M91.71,77.92c-0.19,0.04-13.16,19.47-20.59,42.77l20.83-38.64
		C93.08,80.54,92.52,78.74,91.71,77.92z"/>
</g>
</svg>
